!!!OTL: 1946. Weihnachtslied.
!!!ARE: Europa, Mitteleuropa, Deutschland, Schlesien, Glatz
!!!SCT: E1946
!!!TXL: @@DE
!!!YEM: Copyright 1995, estate of Helmut Schaffrath.
**kern	**text
*ICvox	*
*M3/4	*
*k[f#]	*
*G:	*
!LO:TX:a:t=Kindlich froh, nicht geschwind.	!
!LO:TX:a:t=Aus der Grafſchaft Glatʒ in Schlefien (Hoffmann Nr. 281.)	!
{4dd	.
=1	=1
4b	Lau-
4g	-fet,
4dd	ihr
=2	=2
4b/	Hir-
4g}	-ten,
{4dd	lauft
=3	=3
8ddL	al-
8ccJ	.
4b/	-le
4a	ʒu-
=4	=4
4g	-gleich!
4r}	.
{4dd	.
=5	=5
4b	Neh-
4g	-met
4dd	Schal-
=6	=6
4b/	-may-
4g}	-en
{4dd	und
=7	=7
8ddL	Pſei-
8ccJ	.
4b/	-fen
4a	mit
=8	=8
4g	euch!
4r}	.
{8ddL	Lauft
8bJ	.
=9	=9
4a	al-
8aL	-le
8gJ	.
8f#L	ʒu-
8gJ	.
=10	=10
2a}	-mal
{8ddL	mit
8bJ	.
=11	=11
4a	freu-
8aL	-di-
8gJ	.
8f#L	-gem
8gJ	.
=12	=12
2a}	Schall
{4dd	auf
=13	=13
[8dd	Bethle-
8dd]	.
4b	-hem
4dd	ʒum
=14	=14
4dd	Kripp-
4b}	-lein,
{4dd	ʒum
=15	=15
8ddL	Kripplein
8ccJ	.
4b/	.
4a	im
=16	=16
4g	Stall!
4r}	.
==	==
!!!AGN: geistlich, Fest - Lied, Weihnachten
!!!ONB: ESAC (Essen Associative Code) Database: ERK3
!!!AMT: simple triple
!!!AIN: vox
!!!EED: Helmut Schaffrath
!!!EEV: 1.0
!!!GTL: Geistliche Lieder. 1. Christliche Festlieder: a) Weihnachtskreis (Advent, Weihnachten, Neujahr und Dreikoenigstag).
!!!URL-scan: https://rosdok.uni-rostock.de/mcrviewer/recordIdentifier/rosdok_ppn745177999/iview2/phys_0656.iview2?x=187.54249976177994&y=561.5444673416205&scale=0.7014306698522895&rotation=0&layout=singlePageLayout
!!!ENC: Anna Maria Matuszewska
!!!EEV: 2025/09/01
*-	*-
